X:1
T:Where the Wrecks Wash In
T:Where the Wrecks Wash In
T:Frank Marion Davis
T:Jane E. Hall, 1896
T:Public Domain Courtesy of the Cyber Hymnal™
T:Public Domain Courtesy of the Cyber Hymnal™
C:Frank Marion Davis
Z:Public Domain
Z:Courtesy of the Cyber Hymnal™
%%score ( 1 2 ) ( 3 4 )
L:1/8
Q:1/4=95
M:6/8
K:D
V:1 treble 
V:2 treble 
V:3 bass 
V:4 bass 
V:1
 D | [DF]2 [EG] [FA]2 [FA]/[EG]/ | [DF]2 [FA] [Fd]2 [DA] | [DB]2 [DB] [DA]2 [CG]/[DF]/ | %4
w: 1.~Our|Je- sus walks where the|wrecks wash in, All|bruised and sore from the|
w: 2.~Just|as He did there in|Ga- li- lee, He|walks to- day by the|
w: 3.~He|loves to walk where the|wrecks wash in, That|long have tossed on the|
 [CE]2 [CA] [CA]2 [CG] | [DF]2 [EG] [FA]2 [FA]/[EG]/ | [DF]2 [FA] [Fd]2 [DA] | %7
w: sea of sin; As|each comes in on the|rush- ing tide, He|
w: foam- ing sea; That|He may heal all the|sick and sore, When|
w: sea of sin; Who|call to Him with their|fail- ing breath, To|
 [DB]2 [DG] [DE]2 [DF]/[DG]/ | [DF]2 [CE] D2 ||"^Refrain" [DA] | [Fd]2 [Fd] [FA]2 [FA]/[FA]/ | %11
w: gent- ly calls from the|dark sea- side.|||
w: rough- ly dashed on the|friend- ly shore.|O|sin- ner tossed on the|
w: res- cue them from the|sea of death.|||
 [GB]2 [GB] [FA]2 [FA] | [Fd]2 [Fd] [Ec]2 [Ec]/[Ec]/ | [Ed]2 [DB] [CA]2 [CG] | %14
w: |||
w: tur- bid foam, To|Christ then come and His|har- bor home, He|
w: |||
 [DF]2 [EG] [FA]2 [FA]/[EG]/ | [DF]2 [FA] [Fd]2 [DA] | [DB]2 [DG] [DE]2 [DF]/[DG]/ | %17
w: |||
w: waits just now on the|peace- ful shore, To|heal your wounds and your|
w: |||
 [DF]2 [CE] D6 |] %18
w: |
w: soul re- store.|
w: |
V:2
 D | x6 | x6 | x6 | x6 | x6 | x6 | x6 | x3 D2 || x | x6 | x6 | x6 | x6 | x6 | x6 | x6 | x3 D6 |] %18
V:3
 [D,F,] | [D,A,]2 [D,A,] [D,D]2 [D,D]/[D,A,]/ | [D,A,]2 [D,D] [D,A,]2 [F,A,] | %3
 G,2 [F,A,]2 [E,A,]/[D,A,]/ x | [A,,A,]2 [A,,A,] [A,,A,]2 [A,,A,] | %5
 [D,A,]2 [D,A,] [D,D]2 [D,D]/[D,A,]/ | [D,A,]2 [D,D] [D,A,]2 [F,A,] | %7
 G,2 [G,B,] [G,B,]2 [G,B,]/[G,B,]/ | A,2 [A,,G,] [D,F,]2 || [D,F,] | %10
 [D,A,]2 [D,A,] [D,D]2 [D,D]/[D,D]/ | [G,D]2 [G,D] [D,D]2 [D,D] | %12
 [D,A,]2 [D,A,] [E,A,]2 [E,A,]/[E,A,]/ | [E,^G,]2 [E,G,] [A,,A,]2 [A,,A,] | %14
 [D,A,]2 [D,A,] [D,D]2 [D,D]/[D,A,]/ | [D,A,]2 [D,D] [D,A,]2 [F,A,] | %16
 G,2 [G,B,] [G,B,]2 [G,B,]/[G,B,]/ | A,2 [A,,G,] [D,F,]6 |] %18
V:4
 x | x6 | x6 | G,2 G, x3 | x6 | x6 | x6 | G,2 x4 | A,2 x3 || x | x6 | x6 | x6 | x6 | x6 | x6 | %16
 G,2 x4 | A,2 x7 |] %18

